!!!ONB: MCCC : IJB0067_04 : Extracted Monophonic Melody
!!!COM: Bach, Johann Sebastian
!!!OPR: Cello Suite No.5
!!!OMV: 4
!!!SCT: BWV 1011
!!!ODT: 1717///
**kern
*thru
*staff1
*IP1
*clefF4
*k[b-e-a-]
*c:
*M3/4
*>A
=1-
8G
8E-
8BB
8C
4AA-
=2
8d
8B-
8E
8F
4BB
=3
8e
8B-
8E
8F
8GG
8G
=4
8F
8E-
8BB
8C
4CC
=5
8C
8E-
8B-
8A
8e-
8d
=6
8D
8F
8c
8B-
8d
8c
=7
8B-
8A
8D
8E-
8BB-
8D
=8
2.EE-
=9
*>A
8G
8E-
8BB
8C
4AA-
=2
8d
8B-
8E
8F
4BB
=3
8e
8B-
8E
8F
8GG
8G
=4
8F
8E-
8BB
8C
4CC
=5
8C
8E-
8B-
8A
8e-
8d
=6
8D
8F
8c
8B-
8d
8c
=7
8B-
8A
8D
8E-
8BB-
8D
=8
2.EE-
=9
*>B
8c
8A
8D
8E-
4DD-
=10
8c
8A
8E
8F
4GG
=11
8e-
8c
8E
8F
8CC
8d
=12
8c
8B-
8E
8F
4FF
=13
8EE-
8C
8F
8E-
8c
8B
=14
8DD
8D
8G
8F
8d
8c#
=15
8d
8B-
8F#
8G
8BB
8C
=16
8GG
8D
8G
8F#
8d
8c#
=17
8f
8d
8F#
8G
8AA
8f
=18
8e
8A-
8E
8F
8BB
8G
=19
8F
8E-
8BB
8C
8GG
8c#
=20
8CC
8GG
8F
8E-
4d
=21
*>B
8c
8A
8D
8E-
4DD-
=10
8c
8A
8E
8F
4GG
=11
8e-
8c
8E
8F
8CC
8d
=12
8c
8B-
8E
8F
4FF
=13
8EE-
8C
8F
8E-
8c
8B
=14
8DD
8D
8G
8F
8d
8c#
=15
8d
8B-
8F#
8G
8BB
8C
=16
8GG
8D
8G
8F#
8d
8c#
=17
8f
8d
8F#
8G
8AA
8f
=18
8e
8A-
8E
8F
8BB
8G
=19
8F
8E-
8BB
8C
8GG
8c#
=20
8CC
8GG
8F
8E-
4d
==
*-
